Origami/48x48/apps/mcomix.svg

<svg width="48" height="48" version="1.1" viewBox="0 0 48 48" xmlns="http://www.w3.org/2000/svg">
 <path d="M 24,8 A 17,17 0 0 0 7,25 17,17 0 0 0 24,42 17,17 0 0 0 41,25 17,17 0 0 0 24,8 Z" style="opacity:.2"/>
 <path d="M 10,13 A 10,10 0 0 0 0,23 10,10 0 0 0 10,33 10,10 0 0 0 20,23 10,10 0 0 0 10,13 Z" style="opacity:.2"/>
 <path d="m38 13a10 10 0 0 0 -10 10 10 10 0 0 0 10 10 10 10 0 0 0 10 -10 10 10 0 0 0 -10 -10z" style="opacity:.2"/>
 <path d="m38 12a10 10 0 0 0 -10 10 10 10 0 0 0 10 10 10 10 0 0 0 10 -10 10 10 0 0 0 -10 -10z" style="fill:#f8bb88"/>
 <path d="M 38 12 A 10 10 0 0 0 28 22 A 10 10 0 0 0 28.021484 22.414062 A 10 10 0 0 1 38 13 A 10 10 0 0 1 47.978516 22.585938 A 10 10 0 0 0 48 22 A 10 10 0 0 0 38 12 z" style="fill:#ffffff;opacity:.2"/>
 <path d="M 37.999999,18 A 5.0000001,5.0000001 0 0 0 33,23 5.0000001,5.0000001 0 0 0 37.999999,28 5.0000001,5.0000001 0 0 0 43,23 5.0000001,5.0000001 0 0 0 37.999999,18 Z" style="opacity:.1"/>
 <path d="M 37.999999,17 A 5.0000001,5.0000001 0 0 0 33,22 5.0000001,5.0000001 0 0 0 37.999999,27 5.0000001,5.0000001 0 0 0 43,22 5.0000001,5.0000001 0 0 0 37.999999,17 Z" style="fill:#986135"/>
 <path d="M 10,12 A 10,10 0 0 0 0,22 10,10 0 0 0 10,32 10,10 0 0 0 20,22 10,10 0 0 0 10,12 Z" style="fill:#f8bb88"/>
 <path d="M 10 12 A 10 10 0 0 0 0 22 A 10 10 0 0 0 0.021484375 22.414062 A 10 10 0 0 1 10 13 A 10 10 0 0 1 19.978516 22.585938 A 10 10 0 0 0 20 22 A 10 10 0 0 0 10 12 z" style="fill:#ffffff;opacity:.2"/>
 <path d="M 9.999999,18 A 5.0000001,5.0000001 0 0 0 5,23 5.0000001,5.0000001 0 0 0 9.999999,28 5.0000001,5.0000001 0 0 0 15,23 5.0000001,5.0000001 0 0 0 9.999999,18 Z" style="opacity:.1"/>
 <path d="M 9.999999,17 A 5.0000001,5.0000001 0 0 0 5,22 5.0000001,5.0000001 0 0 0 9.999999,27 5.0000001,5.0000001 0 0 0 15,22 5.0000001,5.0000001 0 0 0 9.999999,17 Z" style="fill:#986135"/>
 <path d="m24 7a17 17 0 0 1 1.304688 0.0546875 17 17 0 0 0 -1.304688 -0.0546875za17 17 0 0 0 -14.947266 8.935547 17 17 0 0 1 14.947266 -8.935547zm2.121094 0.1542969a17 17 0 0 1 0.890625 0.1210937 17 17 0 0 0 -0.890625 -0.1210937zm1.578125 0.2753906a17 17 0 0 1 0.982422 0.234375 17 17 0 0 0 -0.982422 -0.234375zm1.580078 0.4335937a17 17 0 0 1 1.013672 0.3535157 17 17 0 0 0 -1.013672 -0.3535157zm1.505859 0.5722657a17 17 0 0 1 1.080078 0.5019531 17 17 0 0 0 -1.080078 -0.5019531zm1.396485 0.6835937a17 17 0 0 1 1.148437 0.6796875 17 17 0 0 0 -1.148437 -0.6796875zm1.4375 0.8867184a17 17 0 0 1 1.091797 0.804688 17 17 0 0 0 -1.091797 -0.804688zm1.287109 0.976563a17 17 0 0 1 1.072266 0.966797 17 17 0 0 0 -1.072266 -0.966797zm1.224609 1.130859a17 17 0 0 1 0.998047 1.101563 17 17 0 0 0 -0.998047 -1.101563zm-20.630859 0.886719a8.5 8.5 0 0 0 -6.4902344 3.009766 17 17 0 0 0 -0.0019531 0.001953 17 17 0 0 0 -2.0078125 7.988281 17 17 0 0 0 17 17 17 17 0 0 0 17 -17 17 17 0 0 0 -1.980469 -7.941406 8.5 8.5 0 0 0 -0.001953 -0.003906 8.5 8.5 0 0 0 -6.517578 -3.054688 8.5 8.5 0 0 0 -8.5 8.5 8.5 8.5 0 0 0 0.025391 0.5h-0.042969a8.5 8.5 0 0 0 0.017578 -0.5 8.5 8.5 0 0 0 -8.5 -8.5zm23.517578 3.054688a17 17 0 0 0 -0.851562 -1.435547 17 17 0 0 1 0.851562 1.435547zm-1.800781-2.72461a17 17 0 0 1 0.933594 1.263672 17 17 0 0 0 -0.933594 -1.263672z" style="fill:#f59d56"/>
 <path d="M 24,8 A 17,17 0 0 0 9.0078125,17.011719 8.5,8.5 0 0 1 15.5,14 8.5,8.5 0 0 1 24,22.5 8.5,8.5 0 0 1 32.5,14 8.5,8.5 0 0 1 39.019531,17.058594 17,17 0 0 0 24,8 Z m 0,14.5 a 8.5,8.5 0 0 1 -0.01758,0.5 l 0.04297,0 A 8.5,8.5 0 0 1 24,22.5 Z" style="opacity:.1"/>
 <path d="M 24 7 A 17 17 0 0 0 9.0078125 16.011719 A 8.5 8.5 0 0 1 15.5 13 A 8.5 8.5 0 0 1 24 21.5 A 8.5 8.5 0 0 1 32.5 13 A 8.5 8.5 0 0 1 39.019531 16.058594 A 17 17 0 0 0 24 7 z M 24 21.5 A 8.5 8.5 0 0 1 23.982422 22 L 24.025391 22 A 8.5 8.5 0 0 1 24 21.5 z" style="fill:#986135"/>
 <circle cx="18" cy="26" r="3" style="opacity:.1"/>
 <circle cx="18" cy="25" r="3" style="fill:#3f3f3f"/>
 <circle cx="30" cy="26" r="3" style="opacity:.1"/>
 <circle cx="30" cy="25" r="3" style="fill:#3f3f3f"/>
 <path d="m16 35s4 3 8 3 8-3 8-3" style="fill:none;opacity:.1;stroke-linecap:round;stroke-linejoin:round;stroke-width:2;stroke:#000000"/>
 <path d="m16 34s4 3 8 3 8-3 8-3" style="fill:none;stroke-linecap:round;stroke-linejoin:round;stroke-width:2;stroke:#3f3f3f"/>
 <path d="M 24 7 A 17 17 0 0 0 9.0078125 16.011719 A 8.5 8.5 0 0 1 10.603516 14.564453 A 17 17 0 0 1 24 8 A 17 17 0 0 1 37.382812 14.556641 A 8.5 8.5 0 0 1 39.019531 16.058594 A 17 17 0 0 0 24 7 z" style="fill:#ffffff;opacity:.1"/>
</svg>

<svg xmlns="http://www.w3.org/2000/svg" width="48" height="48" version="1.1" viewBox="0 0 48 48">
 <path style="opacity:0.2" d="M 24,8 A 17,17 0 0 0 7,25 17,17 0 0 0 24,42 17,17 0 0 0 41,25 17,17 0 0 0 24,8 Z"/>
 <path style="opacity:0.2" d="M 10,13 A 10,10 0 0 0 0,23 10,10 0 0 0 10,33 10,10 0 0 0 20,23 10,10 0 0 0 10,13 Z"/>
 <path style="opacity:0.2" d="M 38,13 A 10,10 0 0 0 28,23 10,10 0 0 0 38,33 10,10 0 0 0 48,23 10,10 0 0 0 38,13 Z"/>
 <path style="fill:#f8bb88" d="M 38,12 A 10,10 0 0 0 28,22 10,10 0 0 0 38,32 10,10 0 0 0 48,22 10,10 0 0 0 38,12 Z"/>
 <path style="fill:#ffffff;opacity:0.2" d="M 38 12 A 10 10 0 0 0 28 22 A 10 10 0 0 0 28.021484 22.414062 A 10 10 0 0 1 38 13 A 10 10 0 0 1 47.978516 22.585938 A 10 10 0 0 0 48 22 A 10 10 0 0 0 38 12 z"/>
 <path style="opacity:0.1" d="M 37.999999,18 A 5.0000001,5.0000001 0 0 0 33,23 5.0000001,5.0000001 0 0 0 37.999999,28 5.0000001,5.0000001 0 0 0 43,23 5.0000001,5.0000001 0 0 0 37.999999,18 Z"/>
 <path style="fill:#986135" d="M 37.999999,17 A 5.0000001,5.0000001 0 0 0 33,22 5.0000001,5.0000001 0 0 0 37.999999,27 5.0000001,5.0000001 0 0 0 43,22 5.0000001,5.0000001 0 0 0 37.999999,17 Z"/>
 <path style="fill:#f8bb88" d="M 10,12 A 10,10 0 0 0 0,22 10,10 0 0 0 10,32 10,10 0 0 0 20,22 10,10 0 0 0 10,12 Z"/>
 <path style="fill:#ffffff;opacity:0.2" d="M 10 12 A 10 10 0 0 0 0 22 A 10 10 0 0 0 0.021484375 22.414062 A 10 10 0 0 1 10 13 A 10 10 0 0 1 19.978516 22.585938 A 10 10 0 0 0 20 22 A 10 10 0 0 0 10 12 z"/>
 <path style="opacity:0.1" d="M 9.999999,18 A 5.0000001,5.0000001 0 0 0 5,23 5.0000001,5.0000001 0 0 0 9.999999,28 5.0000001,5.0000001 0 0 0 15,23 5.0000001,5.0000001 0 0 0 9.999999,18 Z"/>
 <path style="fill:#986135" d="M 9.999999,17 A 5.0000001,5.0000001 0 0 0 5,22 5.0000001,5.0000001 0 0 0 9.999999,27 5.0000001,5.0000001 0 0 0 15,22 5.0000001,5.0000001 0 0 0 9.999999,17 Z"/>
 <path style="fill:#f59d56" d="M 24 7 A 17 17 0 0 1 25.304688 7.0546875 A 17 17 0 0 0 24 7 z M 24 7 A 17 17 0 0 0 9.0527344 15.935547 A 17 17 0 0 1 24 7 z M 26.121094 7.1542969 A 17 17 0 0 1 27.011719 7.2753906 A 17 17 0 0 0 26.121094 7.1542969 z M 27.699219 7.4296875 A 17 17 0 0 1 28.681641 7.6640625 A 17 17 0 0 0 27.699219 7.4296875 z M 29.279297 7.8632812 A 17 17 0 0 1 30.292969 8.2167969 A 17 17 0 0 0 29.279297 7.8632812 z M 30.785156 8.4355469 A 17 17 0 0 1 31.865234 8.9375 A 17 17 0 0 0 30.785156 8.4355469 z M 32.181641 9.1191406 A 17 17 0 0 1 33.330078 9.7988281 A 17 17 0 0 0 32.181641 9.1191406 z M 33.619141 10.005859 A 17 17 0 0 1 34.710938 10.810547 A 17 17 0 0 0 33.619141 10.005859 z M 34.90625 10.982422 A 17 17 0 0 1 35.978516 11.949219 A 17 17 0 0 0 34.90625 10.982422 z M 36.130859 12.113281 A 17 17 0 0 1 37.128906 13.214844 A 17 17 0 0 0 36.130859 12.113281 z M 15.5 13 A 8.5 8.5 0 0 0 9.0097656 16.009766 A 17 17 0 0 0 9.0078125 16.011719 A 17 17 0 0 0 7 24 A 17 17 0 0 0 24 41 A 17 17 0 0 0 41 24 A 17 17 0 0 0 39.019531 16.058594 A 8.5 8.5 0 0 0 39.017578 16.054688 A 8.5 8.5 0 0 0 32.5 13 A 8.5 8.5 0 0 0 24 21.5 A 8.5 8.5 0 0 0 24.025391 22 L 23.982422 22 A 8.5 8.5 0 0 0 24 21.5 A 8.5 8.5 0 0 0 15.5 13 z M 39.017578 16.054688 A 17 17 0 0 0 38.166016 14.619141 A 17 17 0 0 1 39.017578 16.054688 z M 37.216797 13.330078 A 17 17 0 0 1 38.150391 14.59375 A 17 17 0 0 0 37.216797 13.330078 z"/>
 <path style="opacity:0.1" d="M 24,8 A 17,17 0 0 0 9.0078125,17.011719 8.5,8.5 0 0 1 15.5,14 8.5,8.5 0 0 1 24,22.5 8.5,8.5 0 0 1 32.5,14 8.5,8.5 0 0 1 39.019531,17.058594 17,17 0 0 0 24,8 Z m 0,14.5 a 8.5,8.5 0 0 1 -0.01758,0.5 l 0.04297,0 A 8.5,8.5 0 0 1 24,22.5 Z"/>
 <path style="fill:#986135" d="M 24 7 A 17 17 0 0 0 9.0078125 16.011719 A 8.5 8.5 0 0 1 15.5 13 A 8.5 8.5 0 0 1 24 21.5 A 8.5 8.5 0 0 1 32.5 13 A 8.5 8.5 0 0 1 39.019531 16.058594 A 17 17 0 0 0 24 7 z M 24 21.5 A 8.5 8.5 0 0 1 23.982422 22 L 24.025391 22 A 8.5 8.5 0 0 1 24 21.5 z"/>
 <circle style="opacity:0.1" cx="18" cy="26" r="3"/>
 <circle style="fill:#3f3f3f" cx="18" cy="25" r="3"/>
 <circle style="opacity:0.1" cx="30" cy="26" r="3"/>
 <circle style="fill:#3f3f3f" cx="30" cy="25" r="3"/>
 <path style="opacity:0.1;fill:none;stroke:#000000;stroke-width:2;stroke-linecap:round;stroke-linejoin:round" d="m 16,35 c 0,0 4,3 8,3 4,0 8,-3 8,-3"/>
 <path style="fill:none;stroke:#3f3f3f;stroke-width:2;stroke-linecap:round;stroke-linejoin:round" d="m 16,34 c 0,0 4,3 8,3 4,0 8,-3 8,-3"/>
 <path style="opacity:0.1;fill:#ffffff" d="M 24 7 A 17 17 0 0 0 9.0078125 16.011719 A 8.5 8.5 0 0 1 10.603516 14.564453 A 17 17 0 0 1 24 8 A 17 17 0 0 1 37.382812 14.556641 A 8.5 8.5 0 0 1 39.019531 16.058594 A 17 17 0 0 0 24 7 z"/>
</svg>
